art/dp/systems_sel/msx.svg

<svg enable-background="new 0 0 3839 1299.2" viewBox="0 0 3839 1299.2" xmlns="http://www.w3.org/2000/svg"><g fill="#fff"><path d="m2872.8 334.3h-339.6v-334.3h382.9z"/><path d="m3839 1299.2-922.9-1299.2-291 167.5 803.8 1131.7z"/><path d="m2477.7 1299.2 922.8-1299.2h410l-922.8 1299.2z"/><path d="m1899.2 0h692.9v334.3h-692.9zm293.5 482.4c544.5 0 544.5 816.7 0 816.7 0-111.5 0-222.8 0-334.3 98.7 0 98.7-148.1 0-148.1 0-111.4 0-222.9 0-334.3zm-293.5 334.3c-544.5 0-544.5-816.7 0-816.7v334.3c-98.7 0-98.7 148.1 0 148.1zm0-334.3h293.5v334.3h-293.5zm-383.7 482.4h677.3v334.3h-677.3z"/><path d="m346.5 1299.2 159.7-585.2 159.5 585.2h301.6l159.6-585.2 159.7 585.2h346.5l-354.4-1299.2h-303.6l-158.6 581.5-158.6-581.5h-303.5l-354.4 1299.2z"/></g></svg>

<?xml version="1.0" encoding="UTF-8" standalone="no"?>
<svg
   enable-background="new 0 0 3839 1299.2"
   viewBox="0 0 3840 1300"
   version="1.1"
   id="svg5"
   sodipodi:docname="msx.svg"
   width="3840"
   height="1300"
   inkscape:version="1.3.2 (091e20e, 2023-11-25)"
   xmlns:inkscape="http://www.inkscape.org/namespaces/inkscape"
   xmlns:sodipodi="http://sodipodi.sourceforge.net/DTD/sodipodi-0.dtd"
   xmlns="http://www.w3.org/2000/svg"
   xmlns:svg="http://www.w3.org/2000/svg">
  <defs
     id="defs5" />
  <sodipodi:namedview
     id="namedview5"
     pagecolor="#ffffff"
     bordercolor="#000000"
     borderopacity="0.25"
     inkscape:showpageshadow="2"
     inkscape:pageopacity="0.0"
     inkscape:pagecheckerboard="0"
     inkscape:deskcolor="#d1d1d1"
     inkscape:zoom="0.18165025"
     inkscape:cx="1921.2745"
     inkscape:cy="649.59998"
     inkscape:window-width="1312"
     inkscape:window-height="449"
     inkscape:window-x="0"
     inkscape:window-y="23"
     inkscape:window-maximized="0"
     inkscape:current-layer="svg5" />
  <g
     id="g6"
     transform="scale(1.0002605,1.0006158)">
    <g
       fill="#ffffff"
       id="g5">
      <path
         d="M 2872.8,334.3 H 2533.2 V 0 h 382.9 z"
         id="path1" />
      <path
         d="M 3839,1299.2 2916.1,0 l -291,167.5 803.8,1131.7 z"
         id="path2" />
      <path
         d="M 2477.7,1299.2 3400.5,0 h 410 l -922.8,1299.2 z"
         id="path3" />
      <path
         d="m 1899.2,0 h 692.9 v 334.3 h -692.9 z m 293.5,482.4 c 544.5,0 544.5,816.7 0,816.7 0,-111.5 0,-222.8 0,-334.3 98.7,0 98.7,-148.1 0,-148.1 0,-111.4 0,-222.9 0,-334.3 z M 1899.2,816.7 C 1354.7,816.7 1354.7,0 1899.2,0 v 334.3 c -98.7,0 -98.7,148.1 0,148.1 z m 0,-334.3 h 293.5 v 334.3 h -293.5 z m -383.7,482.4 h 677.3 v 334.3 h -677.3 z"
         id="path4" />
      <path
         d="M 346.5,1299.2 506.2,714 665.7,1299.2 h 301.6 l 159.6,-585.2 159.7,585.2 h 346.5 L 1278.7,0 H 975.1 L 816.5,581.5 657.9,0 H 354.4 L 0,1299.2 Z"
         id="path5" />
    </g>
  </g>
</svg>
